X: 1
T: Austin White's Jig
C: Jerry  Holland
R: jig
Z: 2006 John Chambers <jc:trillian.mit.edu>
M: 6/8
L: 1/8
K: A
c \
|: "A"EAB c3 | "D"d2f "A"ecA | "A"EAB "F#m"c2A | "D"Bdc "E7"BAF \
|  "A"EAB c3 | "D"d2f "A"ecA | "E7"Edc BAG |1 "A"A3 "D"AGF  :|2 "A"A3 A2 ||
|: g \
| "A"a2c "D"d2f | "A"e2f ecA | "A"aec "D"d2f | "A"edc "E7"B2g \
| "A"aec "D"d2f | "A"e2f "F#m"ecA | "Bm"Edc "E7"BAG | "A"A3 A2 :|

%%sep 1 1 500

